src/components/assets/work-conditions/2.svg

<svg width="113" height="113" viewBox="0 0 113 113" fill="none" xmlns="http://www.w3.org/2000/svg">
<path opacity="0.7" d="M56.5 111.915C87.5564 111.915 112.732 86.9856 112.732 56.2334C112.732 25.4813 87.5564 0.551758 56.5 0.551758C25.4437 0.551758 0.267578 25.4813 0.267578 56.2334C0.267578 86.9856 25.4437 111.915 56.5 111.915Z" fill="#2E2E2E"/>
<path opacity="0.7" d="M56.5 102.231C82.1552 102.231 102.953 81.6373 102.953 56.2333C102.953 30.8293 82.1552 10.2354 56.5 10.2354C30.8447 10.2354 10.047 30.8293 10.047 56.2333C10.047 81.6373 30.8447 102.231 56.5 102.231Z" fill="#2E2E2E"/>
<path opacity="0.200358" d="M82.4318 81.9111C89.0684 75.3398 93.1735 66.2611 93.1735 56.2332C93.1735 36.1775 76.7541 19.9189 56.5 19.9189V56.2332L82.4318 81.9111Z" fill="url(#paint0_linear)"/>
<path d="M56.5001 15.0771C55.1499 15.0771 54.0551 16.1613 54.0551 17.4982V22.3401C54.0551 23.677 55.1499 24.7611 56.5001 24.7611C57.8502 24.7611 58.9451 23.677 58.9451 22.3401V17.4982C58.9451 16.161 57.8502 15.0771 56.5001 15.0771Z" fill="#414141"/>
<path d="M56.5001 87.7056C55.1499 87.7056 54.0551 88.7897 54.0551 90.1266V94.9685C54.0551 96.3054 55.1499 97.3895 56.5001 97.3895C57.8502 97.3895 58.9451 96.3054 58.9451 94.9685V90.1266C58.9451 88.7897 57.8502 87.7056 56.5001 87.7056Z" fill="#414141"/>
<path d="M98.0633 56.2331C98.0633 54.8961 96.9684 53.812 95.6183 53.812H90.7285C89.3783 53.812 88.2835 54.8961 88.2835 56.2331C88.2835 57.57 89.3783 58.6541 90.7285 58.6541H95.6183C96.9684 58.6539 98.0633 57.57 98.0633 56.2331Z" fill="#414141"/>
<path d="M24.7163 56.2331C24.7163 54.8961 23.6215 53.812 22.2713 53.812H17.3815C16.0313 53.812 14.9365 54.8961 14.9365 56.2331C14.9365 57.57 16.0313 58.6541 17.3815 58.6541H22.2713C23.6217 58.6539 24.7163 57.57 24.7163 56.2331Z" fill="#414141"/>
<path d="M35.7185 91.8756C36.8878 92.5442 38.3831 92.1474 39.0581 90.9895L41.5031 86.7965C42.1783 85.6386 41.7775 84.158 40.6082 83.4893C39.4389 82.8207 37.9436 83.2176 37.2686 84.3754L34.8236 88.5684C34.1484 89.7263 34.5491 91.207 35.7185 91.8756Z" fill="#414141"/>
<path d="M72.3917 28.9773C73.5611 29.646 75.0564 29.2491 75.7316 28.0913L78.1766 23.8983C78.8519 22.7404 78.4511 21.2597 77.2818 20.5914C76.1124 19.9228 74.6171 20.3196 73.9419 21.4775L71.4969 25.6705C70.8219 26.8283 71.2227 28.309 72.3917 28.9773Z" fill="#414141"/>
<path d="M20.5054 35.6551C19.8301 36.813 20.2309 38.2936 21.4002 38.962L25.6347 41.383C26.804 42.0517 28.2993 41.6548 28.9743 40.4969C29.6495 39.3391 29.2487 37.8584 28.0794 37.1901L23.845 34.769C22.6756 34.1007 21.1803 34.4972 20.5054 35.6551Z" fill="#414141"/>
<path d="M84.0254 71.9697C83.3502 73.1275 83.751 74.6082 84.9203 75.2768L89.1548 77.6979C90.3241 78.3665 91.8194 77.9697 92.4944 76.8118C93.1696 75.6539 92.7688 74.1733 91.5995 73.5046L87.365 71.0836C86.1957 70.415 84.7007 70.8118 84.0254 71.9697Z" fill="#414141"/>
<path d="M77.2815 91.8756C76.1121 92.5442 74.6168 92.1474 73.9416 90.9895L71.4966 86.7965C70.8213 85.6386 71.2221 84.158 72.3914 83.4893C73.5608 82.8207 75.0561 83.2176 75.7313 84.3754L78.1763 88.5684C78.8516 89.7263 78.4508 91.207 77.2815 91.8756Z" fill="#414141"/>
<path d="M40.6082 28.9773C39.4389 29.646 37.9436 29.2491 37.2686 28.0913L34.8236 23.8983C34.1484 22.7404 34.5491 21.2597 35.7185 20.5914C36.8878 19.9228 38.3831 20.3196 39.0581 21.4775L41.5031 25.6705C42.178 26.8283 41.7773 28.309 40.6082 28.9773Z" fill="#414141"/>
<path d="M92.4946 35.6551C93.1699 36.813 92.7691 38.2936 91.5998 38.962L87.3653 41.383C86.196 42.0517 84.7007 41.6548 84.0254 40.4969C83.3502 39.3391 83.751 37.8584 84.9203 37.1901L89.1548 34.769C90.3241 34.1007 91.8197 34.4972 92.4946 35.6551Z" fill="#414141"/>
<path d="M28.9745 71.9697C29.6497 73.1275 29.249 74.6082 28.0797 75.2768L23.8452 77.6979C22.6759 78.3665 21.1806 77.9697 20.5056 76.8118C19.8304 75.6539 20.2311 74.1733 21.4005 73.5046L25.6349 71.0836C26.804 70.415 28.2993 70.8118 28.9745 71.9697Z" fill="#414141"/>
<path d="M83.3937 85.2848C82.7681 85.2848 82.1424 85.0484 81.6652 84.5756L49.8817 53.1029C48.9268 52.1573 48.9268 50.625 49.8817 49.6794C50.8367 48.7338 52.3841 48.7338 53.339 49.6794L85.1228 81.1519C86.0778 82.0975 86.0778 83.6297 85.1228 84.5753C84.645 85.0484 84.0194 85.2848 83.3937 85.2848Z" fill="#FF7671"/>
<g filter="url(#filter0_f)">
<path d="M83.3937 85.2848C82.7681 85.2848 82.1424 85.0484 81.6652 84.5756L49.8817 53.1029C48.9268 52.1573 48.9268 50.625 49.8817 49.6794C50.8367 48.7338 52.3841 48.7338 53.339 49.6794L85.1228 81.1519C86.0778 82.0975 86.0778 83.6297 85.1228 84.5753C84.645 85.0484 84.0194 85.2848 83.3937 85.2848Z" fill="url(#paint1_linear)"/>
</g>
<path d="M56.5 61.0753C59.2005 61.0753 61.3897 58.9075 61.3897 56.2335C61.3897 53.5594 59.2005 51.3916 56.5 51.3916C53.7994 51.3916 51.6102 53.5594 51.6102 56.2335C51.6102 58.9075 53.7994 61.0753 56.5 61.0753Z" fill="#414141"/>
<defs>
<filter id="filter0_f" x="30.1376" y="29.9422" width="74.7294" height="74.3705" filterUnits="userSpaceOnUse" color-interpolation-filters="sRGB">
<feFlood flood-opacity="0" result="BackgroundImageFix"/>
<feBlend mode="normal" in="SourceGraphic" in2="BackgroundImageFix" result="shape"/>
<feGaussianBlur stdDeviation="9.51399" result="effect1_foregroundBlur"/>
</filter>
<linearGradient id="paint0_linear" x1="84.0051" y1="-9.96817" x2="42.9945" y2="2.61253" gradientUnits="userSpaceOnUse">
<stop stop-color="#FF7C56"/>
<stop offset="1" stop-color="#FF5D5D"/>
</linearGradient>
<linearGradient id="paint1_linear" x1="30.8288" y1="67.1275" x2="67.1416" y2="103.799" gradientUnits="userSpaceOnUse">
<stop stop-color="#FF7C56"/>
<stop offset="1" stop-color="#FF5D5D"/>
</linearGradient>
</defs>
</svg>

<svg width="113" height="113" fill="none" xmlns="http://www.w3.org/2000/svg"><path opacity=".7" d="M56.5 111.915c31.056 0 56.232-24.93 56.232-55.682C112.732 25.481 87.556.552 56.5.552S.268 25.482.268 56.233c0 30.753 25.176 55.682 56.232 55.682z" fill="#2E2E2E"/><path opacity=".7" d="M56.5 102.231c25.655 0 46.453-20.594 46.453-45.998 0-25.404-20.798-45.998-46.453-45.998-25.655 0-46.453 20.594-46.453 45.998 0 25.404 20.798 45.998 46.453 45.998z" fill="#2E2E2E"/><path opacity=".2" d="M82.432 81.911c6.636-6.571 10.742-15.65 10.742-25.678 0-20.055-16.42-36.314-36.674-36.314v36.314l25.932 25.678z" fill="url(#paint0_linear)"/><path d="M56.5 15.077c-1.35 0-2.445 1.084-2.445 2.421v4.842c0 1.337 1.095 2.421 2.445 2.421 1.35 0 2.445-1.084 2.445-2.42v-4.843c0-1.337-1.095-2.42-2.445-2.42zM56.5 87.706c-1.35 0-2.445 1.084-2.445 2.42v4.843c0 1.336 1.095 2.42 2.445 2.42 1.35 0 2.445-1.084 2.445-2.42v-4.842c0-1.337-1.095-2.421-2.445-2.421zM98.063 56.233c0-1.337-1.095-2.421-2.445-2.421h-4.89c-1.35 0-2.444 1.084-2.444 2.421 0 1.337 1.094 2.421 2.444 2.421h4.89c1.35 0 2.445-1.084 2.445-2.42zM24.716 56.233c0-1.337-1.095-2.421-2.445-2.421h-4.89c-1.35 0-2.444 1.084-2.444 2.421 0 1.337 1.094 2.421 2.444 2.421h4.89c1.35 0 2.445-1.084 2.445-2.42zM35.718 91.876a2.458 2.458 0 0 0 3.34-.886l2.445-4.194a2.408 2.408 0 0 0-.895-3.307 2.458 2.458 0 0 0-3.34.886l-2.444 4.193a2.408 2.408 0 0 0 .895 3.308zM72.392 28.977a2.458 2.458 0 0 0 3.34-.886l2.445-4.193a2.408 2.408 0 0 0-.895-3.307 2.458 2.458 0 0 0-3.34.886l-2.445 4.194a2.408 2.408 0 0 0 .895 3.306zM20.505 35.655a2.408 2.408 0 0 0 .895 3.307l4.235 2.421a2.458 2.458 0 0 0 3.34-.886 2.408 2.408 0 0 0-.896-3.307l-4.234-2.421a2.458 2.458 0 0 0-3.34.886zM84.025 71.97a2.408 2.408 0 0 0 .895 3.307l4.235 2.42a2.458 2.458 0 0 0 3.34-.885 2.408 2.408 0 0 0-.895-3.307l-4.235-2.421a2.458 2.458 0 0 0-3.34.886zM77.281 91.876a2.458 2.458 0 0 1-3.34-.886l-2.444-4.194a2.408 2.408 0 0 1 .894-3.307 2.458 2.458 0 0 1 3.34.886l2.445 4.193a2.408 2.408 0 0 1-.895 3.308zM40.608 28.977a2.458 2.458 0 0 1-3.34-.886l-2.444-4.193a2.408 2.408 0 0 1 .895-3.307 2.458 2.458 0 0 1 3.34.886l2.444 4.194a2.408 2.408 0 0 1-.895 3.306zM92.495 35.655a2.408 2.408 0 0 1-.895 3.307l-4.235 2.421a2.458 2.458 0 0 1-3.34-.886 2.408 2.408 0 0 1 .895-3.307l4.235-2.421a2.458 2.458 0 0 1 3.34.886zM28.974 71.97a2.408 2.408 0 0 1-.894 3.307l-4.235 2.42a2.458 2.458 0 0 1-3.34-.885 2.408 2.408 0 0 1 .896-3.307l4.234-2.421a2.458 2.458 0 0 1 3.34.886z" fill="#414141"/><path d="M83.394 85.285a2.449 2.449 0 0 1-1.729-.71L49.882 53.104a2.404 2.404 0 0 1 0-3.424 2.461 2.461 0 0 1 3.457 0l31.784 31.473a2.403 2.403 0 0 1 0 3.423 2.45 2.45 0 0 1-1.73.71z" fill="#FF7671"/><g filter="url(#filter0_f)"><path d="M83.394 85.285a2.449 2.449 0 0 1-1.729-.71L49.882 53.104a2.404 2.404 0 0 1 0-3.424 2.461 2.461 0 0 1 3.457 0l31.784 31.473a2.403 2.403 0 0 1 0 3.423 2.45 2.45 0 0 1-1.73.71z" fill="url(#paint1_linear)"/></g><path d="M56.5 61.075c2.7 0 4.89-2.168 4.89-4.842 0-2.674-2.19-4.841-4.89-4.841-2.7 0-4.89 2.167-4.89 4.841 0 2.675 2.19 4.842 4.89 4.842z" fill="#414141"/><defs><filter id="filter0_f" x="30.138" y="29.942" width="74.729" height="74.371" filterUnits="userSpaceOnUse" color-interpolation-filters="sRGB"><feFlood flood-opacity="0" result="BackgroundImageFix"/><feBlend in="SourceGraphic" in2="BackgroundImageFix" result="shape"/><feGaussianBlur stdDeviation="9.514" result="effect1_foregroundBlur"/></filter><linearGradient id="paint0_linear" x1="84.005" y1="-9.968" x2="42.995" y2="2.613" gradientUnits="userSpaceOnUse"><stop stop-color="#FF7C56"/><stop offset="1" stop-color="#FF5D5D"/></linearGradient><linearGradient id="paint1_linear" x1="30.829" y1="67.127" x2="67.142" y2="103.799" gradientUnits="userSpaceOnUse"><stop stop-color="#FF7C56"/><stop offset="1" stop-color="#FF5D5D"/></linearGradient></defs></svg>
